Sweet-Rainbow/icons/distributor-logo-linux-mint.svg

<?xml version="1.0" encoding="UTF-8" standalone="no"?>
<!-- Generator: Gravit.io -->

<svg
   xmlns:dc="http://purl.org/dc/elements/1.1/"
   xmlns:cc="http://creativecommons.org/ns#"
   xmlns:rdf="http://www.w3.org/1999/02/22-rdf-syntax-ns#"
   xmlns:svg="http://www.w3.org/2000/svg"
   xmlns="http://www.w3.org/2000/svg"
   xmlns:sodipodi="http://sodipodi.sourceforge.net/DTD/sodipodi-0.dtd"
   xmlns:inkscape="http://www.inkscape.org/namespaces/inkscape"
   style="isolation:isolate"
   viewBox="0 0 36 36"
   width="48"
   height="48"
   version="1.1"
   id="svg13"
   sodipodi:docname="distributor-logo-linux-mint.svg"
   inkscape:version="0.92.4 (5da689c313, 2019-01-14)">
  <metadata
     id="metadata19">
    <rdf:RDF>
      <cc:Work
         rdf:about="">
        <dc:format>image/svg+xml</dc:format>
        <dc:type
           rdf:resource="http://purl.org/dc/dcmitype/StillImage" />
        <dc:title></dc:title>
      </cc:Work>
    </rdf:RDF>
  </metadata>
  <defs
     id="defs17" />
  <sodipodi:namedview
     pagecolor="#ffffff"
     bordercolor="#666666"
     borderopacity="1"
     objecttolerance="10"
     gridtolerance="10"
     guidetolerance="10"
     inkscape:pageopacity="0"
     inkscape:pageshadow="2"
     inkscape:window-width="640"
     inkscape:window-height="480"
     id="namedview15"
     showgrid="false"
     inkscape:zoom="29.365243"
     inkscape:cx="25.325443"
     inkscape:cy="32"
     inkscape:current-layer="svg13"
     units="px" />
  <linearGradient
     id="_lgradient_29"
     x1="1.5627142"
     y1="0.54316336"
     x2="-0.052491475"
     y2="0.53895819"
     gradientTransform="matrix(45,0,0,39.194,1.5,4.403)"
     gradientUnits="userSpaceOnUse">
    <stop
       offset="34.94098066785295%"
       stop-opacity="1"
       style="stop-color:rgb(178,229,107)"
       id="stop2" />
    <stop
       offset="53.84922244785295%"
       stop-opacity="1"
       style="stop-color:rgb(194,233,100)"
       id="stop4" />
    <stop
       offset="90.40515655585295%"
       stop-opacity="1"
       style="stop-color:rgb(236,244,81)"
       id="stop6" />
    <stop
       offset="100%"
       stop-opacity="1"
       style="stop-color:rgb(250,247,75)"
       id="stop8" />
  </linearGradient>
  <g
     id="g827"
     transform="matrix(0.8,0,0,0.8,-1.2,-1.2)">
    <path
       id="path11"
       d="m 14.565,10.21 v 20.322 c 0,3.194 2.589,5.807 5.806,5.807 h 13.064 c 3.217,0 5.807,-2.613 5.807,-5.807 V 19.645 c 0,-2.758 -2.275,-5.08 -5.081,-5.08 -1.425,0 -2.706,0.58 -3.629,1.596 -0.923,-1.016 -2.203,-1.596 -3.629,-1.596 -2.806,0 -5.08,2.322 -5.08,5.08 v 8.71 h 2.903 v -8.71 c 0,-1.161 0.975,-2.177 2.177,-2.177 1.202,0 2.178,1.016 2.178,2.177 v 8.71 h 2.903 v -8.71 c 0,-1.161 0.975,-2.177 2.177,-2.177 1.202,0 2.178,1.016 2.178,2.177 v 10.887 c 0,1.597 -1.295,2.903 -2.904,2.903 H 20.371 c -1.608,0 -2.903,-1.306 -2.903,-2.903 V 10.21 Z M 4.403,7.306 H 32.12 c 6.402,0 11.477,5.075 11.477,11.477 V 40.694 H 21.686 C 15.285,40.694 10.21,35.619 10.21,29.217 V 16.016 C 10.211,14.496 8.826,13.111 7.306,13.113 H 4.403 Z M 1.5,4.403 v 11.613 h 5.806 v 13.201 c 0,7.961 6.419,14.38 14.38,14.38 H 46.5 V 18.783 c 0,-7.961 -6.419,-14.38 -14.38,-14.38 z"
       inkscape:connector-curvature="0"
       style="fill:url(#_lgradient_29);fill-rule:evenodd" />
  </g>
</svg>

<?xml version="1.0" encoding="UTF-8" standalone="no"?><!-- Generator: Gravit.io --><svg xmlns="http://www.w3.org/2000/svg" xmlns:xlink="http://www.w3.org/1999/xlink" style="isolation:isolate" viewBox="0 0 48 48" width="48pt" height="48pt"><linearGradient id="_lgradient_29" x1="1.5627141899860746" y1="0.543163345093069" x2="-0.052491476226457445" y2="0.5389581965419142" gradientTransform="matrix(45,0,0,39.194,1.5,4.403)" gradientUnits="userSpaceOnUse"><stop offset="34.94098066785295%" stop-opacity="1" style="stop-color:rgb(178,229,107)"/><stop offset="53.84922244785295%" stop-opacity="1" style="stop-color:rgb(194,233,100)"/><stop offset="90.40515655585295%" stop-opacity="1" style="stop-color:rgb(236,244,81)"/><stop offset="100%" stop-opacity="1" style="stop-color:rgb(250,247,75)"/></linearGradient><path d=" M 14.565 10.21 L 14.565 30.532 C 14.565 33.726 17.154 36.339 20.371 36.339 L 33.435 36.339 C 36.652 36.339 39.242 33.726 39.242 30.532 L 39.242 19.645 C 39.242 16.887 36.967 14.565 34.161 14.565 C 32.736 14.565 31.455 15.145 30.532 16.161 C 29.609 15.145 28.329 14.565 26.903 14.565 C 24.097 14.565 21.823 16.887 21.823 19.645 L 21.823 28.355 L 24.726 28.355 L 24.726 19.645 C 24.726 18.484 25.701 17.468 26.903 17.468 C 28.105 17.468 29.081 18.484 29.081 19.645 L 29.081 28.355 L 31.984 28.355 L 31.984 19.645 C 31.984 18.484 32.959 17.468 34.161 17.468 C 35.363 17.468 36.339 18.484 36.339 19.645 L 36.339 30.532 C 36.339 32.129 35.044 33.435 33.435 33.435 L 20.371 33.435 C 18.763 33.435 17.468 32.129 17.468 30.532 L 17.468 10.21 L 14.565 10.21 Z  M 4.403 7.306 L 32.12 7.306 C 38.522 7.306 43.597 12.381 43.597 18.783 L 43.597 40.694 L 21.686 40.694 C 15.285 40.694 10.21 35.619 10.21 29.217 L 10.21 16.016 C 10.211 14.496 8.826 13.111 7.306 13.113 L 4.403 13.113 L 4.403 7.306 L 4.403 7.306 Z  M 1.5 4.403 L 1.5 16.016 L 7.306 16.016 L 7.306 29.217 C 7.306 37.178 13.725 43.597 21.686 43.597 L 46.5 43.597 L 46.5 18.783 C 46.5 10.822 40.081 4.403 32.12 4.403 L 1.5 4.403 L 1.5 4.403 Z " fill-rule="evenodd" fill="url(#_lgradient_29)"/></svg>
